icons/mail/reply-all.svg

<?xml version="1.0" encoding="UTF-8" standalone="no"?>
<svg
   height="16"
   width="16"
   version="1.1"
   id="svg8"
   sodipodi:docname="reply-all.svg"
   inkscape:version="1.1 (ce6663b3b7, 2021-05-25)"
   xmlns:inkscape="http://www.inkscape.org/namespaces/inkscape"
   xmlns:sodipodi="http://sodipodi.sourceforge.net/DTD/sodipodi-0.dtd"
   xmlns="http://www.w3.org/2000/svg"
   xmlns:svg="http://www.w3.org/2000/svg">
  <defs
     id="defs12" />
  <sodipodi:namedview
     id="namedview10"
     pagecolor="#ffffff"
     bordercolor="#666666"
     borderopacity="1.0"
     inkscape:pageshadow="2"
     inkscape:pageopacity="0.0"
     inkscape:pagecheckerboard="0"
     showgrid="false"
     inkscape:zoom="56"
     inkscape:cx="7.9910714"
     inkscape:cy="8.0089286"
     inkscape:window-width="1920"
     inkscape:window-height="1016"
     inkscape:window-x="0"
     inkscape:window-y="27"
     inkscape:window-maximized="1"
     inkscape:current-layer="svg8" />
  <path
     id="path2"
     style="color:#000000;line-height:normal;font-variant-ligatures:none;font-variant-position:normal;font-variant-caps:normal;font-variant-numeric:normal;font-variant-alternates:normal;font-feature-settings:normal;text-indent:0;text-align:start;text-decoration-line:none;text-decoration-style:solid;text-decoration-color:#000000;text-transform:none;shape-padding:0;isolation:auto;mix-blend-mode:normal;fill:#808080;marker:none"
     d="M 11 4 L 11 8.5 C 11 9.75 10.606562 10.258844 9.9765625 10.589844 C 9.3455625 10.919844 8.3830938 11 7.3710938 11 L 5 11 L 5 9 L 4.9980469 9 C 4.2370469 9.357 3.4637813 9.7496875 2.6757812 10.179688 C 1.8937813 10.610688 1.1410156 11.051 0.41601562 11.5 C 1.1410156 11.958 1.8957813 12.402984 2.6757812 12.833984 A 36.975 36.975 0 0 0 4.9980469 14 L 4.9980469 12 L 11.371094 12 C 12.423094 12 13.524406 11.955609 14.441406 11.474609 C 15.360406 10.992609 16 10 16 8.5 L 16 4 L 15 4 L 15 8.5 C 15 9.75 14.606562 10.258844 13.976562 10.589844 C 13.345562 10.919844 12.383094 11 11.371094 11 L 11.087891 11 C 11.645891 10.447 12 9.614 12 8.5 L 12 4 L 11 4 z " />
</svg>

<svg height="16" width="16" xmlns="http://www.w3.org/2000/svg">
    <g color="#000" fill="gray">
        <path d="M11 4v4.5c0 1.25-.393 1.759-1.023 2.09-.631.33-1.594.41-2.606.41H2.83v1h8.541c1.052 0 2.153-.044 3.07-.525C15.36 10.993 16 10 16 8.5V4h-1v4.5c0 1.25-.393 1.759-1.023 2.09-.631.33-1.594.41-2.606.41h-.283c.558-.553.912-1.386.912-2.5V4z" style="line-height:normal;font-variant-ligatures:none;font-variant-position:normal;font-variant-caps:normal;font-variant-numeric:normal;font-variant-alternates:normal;font-feature-settings:normal;text-indent:0;text-align:start;text-decoration-line:none;text-decoration-style:solid;text-decoration-color:#000;text-transform:none;shape-padding:0;isolation:auto;mix-blend-mode:normal;marker:none" font-weight="400" font-family="sans-serif" white-space="normal" overflow="visible"/>
        <path d="M5 9l-.002 5a36.975 36.975 0 0 1-2.323-1.166c-.78-.431-1.534-.876-2.259-1.334.725-.449 1.478-.889 2.26-1.32.788-.43 1.562-.823 2.323-1.18z" style="marker:none" overflow="visible"/>
    </g>
</svg>
